!!!!SEGMENT: pl-wtm--a-38-263-88_piotrowski-aleksander--nasz-wodz-nie-stapal-w-zyciu-swem.krn
!!!cenid: 19xx:50
!!!COM: Piotrowski, Aleksander
!!!COM-rismID: pe50047948
!!!CDT: 1870-1938
!!!CNT: Russian
!!!OTL: Nasz wódz/Nie stąpał w życiu swem
!!!PDT: 1920
!!!AGN: Secular
!!!YEC: Copyright 2022 Narodowy Instytut Fryderyka Chopina (https://polishscores.org)
!!!YEM: License CC-BY-4.0 (https://creativecommons.org/licenses/by/4.0)
!!!SMS-siglum: PL-Wtm
!!!SMS-shelfmark: A.38.263-88
!!!SMS-variant:
!!!SMS-altvar:
!!!SMS-shelfwork: W
!!!NIFC-rismSourceID: 1001155882
!!!NIFC-rismChildID: 1001155882
!!!NIFC-islandoraID: pl-wtm:3507
!!!URL-pdf-islandora: https://repozytorium.nifc.pl/islandora/object/pl-wtm%3A3507/datastream/PDF/view
!!!URL-scan: https://polish.musicsources.pl/pl/lokalizacje/galeria/druki-muzyczne/15604/2 @EN{Scan on Polish Music Sources Website} @PL{Skany w portalu Dziedzictwo Muzyki Polskiej w otwartym dostępie}
!!!IIIF:
!!!ONB-nifc:
!!!OMD: Allegro Maestoso.
!!!AIN: 1 piano
!!!key:
**kern	**kern	**text	**text	**dynam
*part1	*part1	*part1	*part1	*part1
*staff2	*staff1	*staff1	*staff1	*
*I"FORTEP.	*	*	*	*
*Ipiano	*	*	*	*
*ICklav	*	*	*	*
*clefF4	*clefG2	*	*	*
*k[f#c#g#]	*k[f#c#g#]	*	*	*
*A:	*A:	*	*	*
*M4/4	*M4/4	*	*	*
*met(c)	*met(c)	*	*	*
*	*	*above	*	*
*>[A,B,B1,B,B2]	*>[A,B,B1,B,B2]	*	*	*
*>A	*>A	*	*	*
!	!LO:TX:a:t=P:problem:tekst nad górną pieciolinią	!	!	!
8r	8e/	Nie	.	.
=1!|:	=1!|:	=1!|:	=1!|:	=1!|:
*>B	*>B	*	*	*
*	*^	*	*	*
*	*	*	*above	*	*
!	!	!	!	!	!LO:DY:b
2AA\ 2E 2A	4.a/	2c#\ 2e	stą-	rze-	f
.	8b/	.	-pał	-nia	<
4AA\ 4E 4A	8.cc#/L	4c#\ 4e	w ży-	cu-	.
.	16b/K	.	-ciu	-dne	.
4AA\ 4E 4A	8a/	4c#\ 4e	swem	się	.
.	8g#/J	.	po	speł-	[
*	*v	*v	*	*	*
=2	=2	=2	=2	=2
*^	*	*	*	*
2D/	(>8DD\L	2e/ 2g#	kwia-	-ni-	>
.	8DD\	.	.	.	.
.	8FF#\	.	.	.	.
.	8AA\J	.	.	.	.
2ryy	8D\)	4.d/ 4.f#	-tach,	-ły,	.
.	8r	.	.	.	.
.	4D\ 4F# 4B	.	.	.	.
.	.	8d/ 8f#	lecz	wy-	]
*v	*v	*	*	*	*
!!LO:LB:g=original
=3	=3	=3	=3	=3
!	!	!	!	!LO:DY:b:rj
4EE/ 4E	4.d\ 4.e 4.g# 4.b	dla	-słu-	mf
4D\ 4E 4G#	.	.	.	.
.	8f#/ 8a	i-	-chał	.
4D\ 4E 4G#	8e/L 8g#	-de-	proś-	.
.	8d/ 8f#	-i	-by	.
4D\ 4E 4G#	8c#/ 8e	wiel-	je-	.
.	8B/J 8d	-kiej	-go	.
=4	=4	=4	=4	=4
8AAA/L 8AA	(>2d/ 2f#	żył,	Bóg,	<
8AA/	.	.	.	.
8D/	.	.	.	.
8F#/J	.	.	.	.
4C#\ 4E 4A	4c#/) 4e	.	.	[
4C#\ 4E 4A	8r	.	.	.
.	8e/	mie-	bo	.
=5	=5	=5	=5	=5
*	*^	*	*	*
!	!	!	!	!	!LO:DY:b
!	!	!	!	!	!LO:HP:t=cresc._:ext=0:ext=ud
2AA\ 2E 2A	4.a/	2c#\ 2e	-sią-	już	f <
.	8b/	.	-ce	zgnę-	.
4AA\ 4E 4A	8cc#/L	4c#\ 4e	dłu-	-bio-	.
.	8b/	.	-gie	-ne	.
4AA\ 4E 4A	8a/	4c#\ 4e	w ka-	wra-	.
.	8g#/J	.	-za-	-że	[
*	*v	*v	*	*	*
!!LO:LB:g=original
=6	=6	=6	=6	=6
8DD/L 8D	2d/ 2f#	-ma-	si-	.
16r	.	.	.	.
16BBB/K	.	.	.	.
8DD/	.	.	.	.
8FF#/J	.	.	.	<
8BBB^/L 8BB	8d^/L 8f# 8b 8dd	-tach	-ły	.
16r	16r	.	.	.
16DD/K 16D	16d/K 16f# 16b	o	i	.
8CC#/ 8C#	8e/ 8f# 8a#X 8cc#	wol-	zwy-	.
8BBB/J 8BB	8d/J 8f# 8dd	-nej	-cię-	[[
=7	=7	=7	=7	=7
!	!	!	!	!LO:DY:b
8EEE/ 8EE	8c#/ 8e 8cc#	Pol-	-żo-	ff
8r	8r	.	.	.
*tremolo	*	*	*	*
32EE/LLL	8c#/ 8e 8an	-sce	-ny	.
32E/	.	.	.	.
32EE/	.	.	.	.
32E/	.	.	.	.
32EE/	8r	.	.	.
32E/	.	.	.	.
32EE/	.	.	.	.
32E/JJJ	.	.	.	.
*Xtremolo	*	*	*	*
8EE/ 8E	4.d/ 4.e 4.g# 4.b	tyl-	po-	.
8r	.	.	.	.
8EE/ 8E	.	.	.	.
8r	8a/	-ko	-dły	.
=8	=8	=8	=8	=8
16AAA\KL 16AA	2.A/ 2.c# 2.e 2.a	śnił.	wróg.	>
16r	.	.	.	.
8A\	.	.	.	.
8E\	.	.	.	.
8C#\J	.	.	.	.
8AA/	.	.	.	.
8r	.	.	.	.
8AAA/	8r	.	.	]
!	!	!	!	!LO:DY:b
8r	16r	.	.	mf
.	16b\	Ten	Więc	.
!!LO:PB:g=original
=9	=9	=9	=9	=9
*	*^	*	*	*
8EE/	4.b/	2B\ 2e 2g#	Je	czci-	.
8r	.	.	.	.	.
8BB\ 8E 8G#	.	.	.	.	.
8r	8cc#/	.	go	-my	.
!LO:TX:t=P:problem: krzyżyk do dźwięku, którego nie ma	!	!	!	!	!
8BB\ 8F# 8A	8.b/L	2B\ 2d#X	za-	Cie-	.
8r	.	.	.	.	.
.	16a/K	.	-pał	-bie	.
8BB\ 8D#X 8A	8g#/	.	pra-	Bo-	.
8r	8f#/J	.	-ca	-ha-	.
=10	=10	=10	=10	=10	=10
*^	*	*	*	*	*
2E/	8.EE\L	2b/	2B\ 2e 2g#	szcze-	-te-	.
.	16EE\K	.	.	.	.	.
.	8GG#\	.	.	.	.	<
.	8BB\J	.	.	.	.	.
2E/	4E\	8e/L	2B\ 2dn	-ra	-rze,	.
.	.	16r	.	.	.	.
.	.	16e/K	.	wy-	Ty	.
.	4EE\	8f#/	.	-da-	je-	.
.	.	8g#/J	.	-ła	-den	[[
*	*	*v	*v	*	*	*
!!LO:LB:g=original
=11	=11	=11	=11	=11	=11
!	!	!	!	!	!LO:HP:t=cresc. molto_:ext=s:ext=ud
8AAA/L 8AA	2AAA\	4.A/ 4.c# 4.e 4.a	te-	tyl-	<
8CC#/	.	.	.	.	.
8EE/	.	.	.	.	.
8AA/J	.	8A/ 8c# 8e 8a	-raz	-ko	.
8FF#/L 8F#	2FF#\	4c#/ 4f# 4a 4cc#	wiel-	na-	.
8AA/	.	.	.	.	.
8C#/	.	4A/ 4f# 4a	-ki	-mi	.
8F#/J	.	.	.	.	.
*v	*v	*	*	*	*
=12	=12	=12	=12	=12
8.EE/L 8.E	[2.e/ [2.g# [2.b [2.ee	plon,	rządź!	.
16EE/K 16E	.	.	.	.
8EE/ 8E	.	.	.	.
8FF#/J 8F#	.	.	.	.
8EE/L 8E	.	.	.	.
8DD/ 8D	.	.	.	.
8CC#/ 8C#	8e/L] 8g#] 8b] 8ee]	.	.	.
8BBB/J 8BB	8e/J 8g# 8b 8ee	o	swą	[
=13	=13	=13	=13	=13
!	!	!	!	!LO:DY:b
4AAA/ 4AA	4.e/ 4.a 4.cc# 4.ee	do-	krew	ff
4GG#^^\ 4G#	.	.	.	.
!	!LO:TX:a:t=ritenuto:rj	!	!	!
.	8cc#\	-brze	z nas	.
4FF#^^\ 4F#	8.c#/L 8.f# 8.a	zna-	każ-	.
.	16c#/Jk 16f# 16a	-my	-dy	.
4EE^^\ 4E	8.e/L 8.g# 8.b	Bo-	da	.
.	16e/Jk 16g# 16b	-ha-	w o-	.
!!LO:LB:g=original
=14	=14	=14	=14	=14
4CC#/ 4C#	4.e/ 4.a 4.cc# 4.ee	-te-	-fie-	.
4AAA/ 4AA	.	.	.	.
.	8cc#\	.	.	.
8FFF#/L 8FF#	8.a/L	-ra,	-rze	.
8AAA/ 8AA	.	.	.	.
.	16a/K	każ-	u-	.
8CC#/ 8C#	8a/	-de-	-mi-	.
8FF#/J 8F#	8a/J	-mu	-ło-	.
=15	=15	=15	=15	=15
*^	*	*	*	*
8DD/L	2DD\ 2D	4d/ 4f# 4b	ser-	-wa-	.
8DD/	.	.	.	.	.
8FF#/	.	4B/ 4d 4f# 4b	-cu	-nym	.
8BB/J	.	.	.	.	.
8DD/L 8D	2DD\ 2D	4d/ 4f# 4b 4dd	dro-	Wo-	<
8FF#/	.	.	.	.	.
8BB/	.	4d/ 4f# 4b 4dd	-gi	-dzem	.
8D/J	.	.	.	.	.
*v	*v	*	*	*	*
=16	=16	=16	=16	=16
8CC#/L 8C#	[2c#/ [2e#X [2g# [2cc#	On!	bądź!	.
8CC#/ 8C#	.	.	.	.
8EE#X/ 8E#X	.	.	.	.
8GG#/J 8G#	.	.	.	.
8C#\ 8c#	8c#/L] 8e#] 8g#] 8cc#]	.	.	[
16r;	16r;	.	.	.
16BBB/ 16BB	16d/Jk 16f# 16b 16dd	Każ-	U-	.
8CC#/L 8C#	8en/L 8f# 8a#X 8cc#	-de-	-mi-	.
8DD/J 8D	8d/J 8f# 8b	-mu	-ło-	.
!!LO:LB:g=original
=17	=17	=17	=17	=17
*tremolo	*	*	*	*
32EE/LLL	4e^^/ 4an 4cc# 4ee	ser-	-wa-	.
32E/	.	.	.	.
32EE/	.	.	.	.
32E/	.	.	.	.
32EE/	.	.	.	.
32E/	.	.	.	.
32EE/	.	.	.	.
32E/	.	.	.	.
32EE/	4e^^/ 4a 4cc# 4ee	-cu	-nym	.
32E/	.	.	.	.
32EE/	.	.	.	.
32E/	.	.	.	.
32EE/	.	.	.	.
32E/	.	.	.	.
32EE/	.	.	.	.
32E/JJJ	.	.	.	.
32EEE/LLL	4B^^/ 4d 4e 4g#	dro-	Wo-	.
32EE/	.	.	.	.
32EEE/	.	.	.	.
32EE/	.	.	.	.
32EEE/	.	.	.	.
32EE/	.	.	.	.
32EEE/	.	.	.	.
32EE/	.	.	.	.
32EEE/	4B^^/ 4d 4e 4g#	-gi	-dzem	.
32EE/	.	.	.	.
32EEE/	.	.	.	.
32EE/	.	.	.	.
32EEE/	.	.	.	.
32EE/	.	.	.	.
32EEE/	.	.	.	.
32EE/JJJ	.	.	.	.
*Xtremolo	*	*	*	*
=18	=18	=18	=18	=18
*>B1	*>B1	*	*	*
8AAA/L 8AA	2.A/ 2.c# 2.e 2.a	On!	.	.
8AAA/	.	.	.	.
8CC#/	.	.	.	.
8EE/J	.	.	.	.
4AA/	.	.	.	.
4r	8r	.	.	.
.	8e/	Ma	.	.
=19:|!	=19:|!	=19:|!	=19:|!	=19:|!
*>B2	*>B2	*	*	*
!	!LO:N:vis=2.	!	!	!
8AAA/L 8AA	2A/ 2c# 2e 2a	.	bądź!	.
8AAA/	.	.	.	.
8CC#/	.	.	.	.
8EE/J	.	.	.	.
!	!	!	!	!LO:DY:b
4AAA^/ 4AA	4a^^\ 4cc# 4ee 4aa	.	.	fz
!	!LO:TX:b:t=Fine.	!	!	!
8r	8r	.	.	.
==	==	==	==	==
*-	*-	*-	*-	*-
!!!system-decoration: {(s1,s2)}
!!!RDF**kern: < = below
!!!RDF**kern: > = above
!!!ENC: Anastazja Marusiak
!!!END: 2023-09-06
!!!ENC: Marta Chmielewska
!!!END: 2023-09-23
